X: 34095
T: Reel Des Cigarettes
R: reel
M: 4/4
K: Dmajor
A/G/|FAde fd2 e/f/|gfed e/d/c/B/ A/B/A/G/|FAde fd2 e/f/|gecA d3:|
f/g/|afba g~f(e e/)f/|gecA d/e/f/g/ a f/g/|afba g~f(e e/)f/|gecA d3:|

